!!!COM: Ernest Chausson
!!!CNT: Francais
!!!TXO: Francais
!!!OTL: L'Aveu
!!!OPS: Op. 13
!!!ONM: No. 3
!!!LYR: Auguste, Comte de Villiers de L'isle-Adam
!!!ENC: Jacob Pegg
!!!YOR: 20 Songs for Voice and Piano, International Music Company, New York City, January, 1952
!!!ODT: 1887/
!!NB: Vocal melody and text only encoded.
**kern	**silbe
*clef G2	*
*k[b-e-a-]	*
*M3/4	*
=9	=9
4r	.
{4g	{J'ai
4an	per-
=10	=10
4.b-	-du
4a-	la
8g	fo-
=11	=11
2g	-re^t,
4cc	la
=12	=12
2.ee-	plaine,
=13	=13
8dd-	Et
8dd-	les
4cc-	frais
4g-	A-
=14	=14
2.b-	-vrils
=15	=15
4.bn	d'au-
4.g	-tre-
=16	=16
[4g	fois
8g]}	|}
8r	.
4r	.
=17	=17
2.r	.
=18	=18
*M6/8	*
2.r	.
=19	=19
2.r	.
=20	=20
{[4.cc	{Don-
8cc]	|
8b-	-ne
8a	tes
=21	=21
([4.g-	le\-
8g-]	|
4f-)	|
=22	=22
[4.e-	-vres
8e-]}	|}
8r	.
8r	.
=23	=23
4r	.
8r	.
{4b--	{Leur
8b--	ha-
=24	=24
4a-	-lei-
8e-}	-ne}
8r	.
8r	.
8r	.
!!The eighth rest immediately prior was added in the encoded version
!!To avoid timing errors, as the printed version was short by one.
=25	=25
4r	.
8r	.
{4b--	{Ce
8b--	se-
=26	=26
[2.dd-	-ra
=27	=27
4.dd-]	|
4.ff-	le
=28	=28
([4.een	souf-
8een]	|
8ddn	|
8cc)	-fle
=29	=29
([4.b-	des
8b-]	|
4a-)	|
=30	=30
[4.g	bois
8g]}	|}
8r	.
8r	.
*M3/4	*
=35	=35
4r	.
{4g	{J'ai
4cc	per-
=36	=36
4cc-	-du
8b-	l'o\-
8b-	-ce-
8a-	-an
8a-	mo-
=37	=37
4g	-ro-
4g	-se,
8.r	.
16g	Son
=38	=38
2a-	deuil,
8.r	.
16a-	ses
=39	=39
2b--	va-
8b--	-gues
8r	.
=40	=40
4r	.
4ccn	ses
4ccn	e/-
=41	=41
[2a-	-chos
8a-]}	|}
8r	.
=46	=46
4r	.
4r	.
8r	.
{8cc#	{Dis~
=47	=47
*M6/8	*
2.cc#	~moi
=48	=48
8ccn	n'im-
8ccn	-por-
8ccn	-te
8.f	quel-
8.f	-le
=49	=49
4.e-	cho-
8e-}	-se}
8r	.
8r	.
=50	=50
4r	.
8r	.
8r	.
{8f	{Ce
8f	se-
=51	=51
4.f	-ra
4g-	la
8a-	ru-
=52	=52
[4.an	-meur
8an]	|
4cc	des
=53	=53
2.bn}	flots}
=54	=54
2.r	.
!!substituted 2.r for 1r to avoid timing error
=55	=55
2.r	.
!!substituted 2.r for 1r to avoid timing error
=56	=56
{4.g	{Lourd
8g	d'u-
8f	-ne
8e-	tris-
=57	=57
[4.en	-tes
8en]	|
8f	se
8g	roy-
=58	=58
2.a-	-a-
=59	=59
4g}	-le}
8r	.
4r	.
8r	.
=60	=60
{4.g-	{Mon
4.cc-	front
=61	=61
[4.b-	songe
8b-]	|
8a-	aux
8g-	ro-
=62	=62
[4.an	-leils
8an]	|
4f	en-
=63	=63
[4.en	-fuis.
8en]}	|}
8r	.
8r	.
=64	=64
4.r	.
4.r	.
=65	=65
4.r	.
4.r	.
=66	=66
{2.ee-	{Oh!
=67	=67
(4an	ca-
4a-)	|
4g-	-che~
=68	=68
2.ee-	~moi
=69	=69
4cc-	dans
4b-	ton
4a-	sein
=70	=70
([4.ee-	pa^-
4ee-]	|
8f#)	|
=71	=71
[4.f#	-le!
8f#]}	|}
8r	.
8r	.
=72	=72
4r	.
8r	.
8r	.
{8ee-	{Ce
8ee-	se-
=73	=73
2.een	-ra
=74	=74
(4.ee-	le
4.a-)	|
=75	=75
4.g	cal-
4.g	-me
=76	=76
2.f	des
=77	=77
[4.e-	nuits.
8e-]}	|}
8r	.
8r	.
*-	*-
